source/img/icon.svg

<svg width="32" height="32" viewBox="0 0 32 32" fill="none" xmlns="http://www.w3.org/2000/svg">
<g clip-path="url(#clip0_778_1195)">
<rect width="32" height="32" fill="white"/>
<path fill-rule="evenodd" clip-rule="evenodd" d="M60.0711 11.7528C60.0711 8.71909 61.9548 7 65.1281 7C68.2761 7 70.0713 8.7823 70.0713 11.8413V19.6657C69.9955 23.2176 68.314 25.0126 65.0143 24.9999C61.7146 24.9873 60.0711 23.1671 60.0711 19.6025V11.7528ZM66.4361 20.9715C66.4966 20.774 66.5161 20.5662 66.4935 20.3609V11.5126C66.5123 11.3129 66.4891 11.1115 66.4255 10.9212C66.362 10.7309 66.2593 10.556 66.1243 10.4077C65.9892 10.2594 65.8246 10.1409 65.6411 10.0598C65.4576 9.97869 65.2592 9.9368 65.0586 9.9368C64.8579 9.9368 64.6595 9.97869 64.476 10.0598C64.2925 10.1409 64.1279 10.2594 63.9928 10.4077C63.8578 10.556 63.7551 10.7309 63.6916 10.9212C63.628 11.1115 63.6048 11.3129 63.6236 11.5126V20.3609C63.597 20.5679 63.6142 20.7782 63.6739 20.9781C63.7337 21.1781 63.8348 21.3633 63.9706 21.5217C64.1064 21.6802 64.274 21.8083 64.4625 21.898C64.651 21.9876 64.8562 22.0367 65.0649 22.0421C65.2712 22.0313 65.4731 21.9785 65.6583 21.8869C65.8434 21.7953 66.0079 21.6668 66.1417 21.5094C66.2755 21.352 66.3756 21.169 66.4361 20.9715Z" fill="#252525"/>
<path d="M81.437 7.3918H72.4481V10.4381H75.4318V24.5827H78.6556V10.4381H81.437V7.3918Z" fill="#252525"/>
<path d="M83.3081 7.3918H92.2843V10.4381H89.5029V24.5827H86.2791V10.4381H83.3081V7.3918Z" fill="#252525"/>
<path d="M94.9013 7.3918H98.4286V24.5954H94.9013V7.3918Z" fill="#252525"/>
<path d="M49.4765 7.3918V24.5827H57.4919V21.3342H53.0165V7.3918H49.4765Z" fill="#252525"/>
<path fill-rule="evenodd" clip-rule="evenodd" d="M39.3625 7.3918H43.6863L47.1124 24.5827H43.661L43.0921 21.0814H39.982L39.5016 24.5827H36.0123L39.3625 7.3918ZM40.3234 18.0603V18.1993H42.5611L41.5371 10.3876V10.2738H41.3221L40.3234 18.0603Z" fill="#252525"/>
<path d="M27.036 7.3918H23.5087V21.0434C23.4802 21.3034 23.3567 21.5438 23.1619 21.7184C22.9671 21.893 22.7147 21.9895 22.4531 21.9895C22.1915 21.9895 21.9391 21.893 21.7442 21.7184C21.5494 21.5438 21.4259 21.3034 21.3974 21.0434V18.9578H18.1736V21.0182C18.1736 23.4451 19.8803 24.9493 22.6111 24.9493C23.1664 25.0036 23.7269 24.9421 24.2572 24.7686C24.7875 24.5952 25.276 24.3137 25.6919 23.9419C26.1077 23.57 26.4419 23.1159 26.6733 22.6083C26.9047 22.1007 27.0282 21.5506 27.036 20.9929V7.3918Z" fill="#252525"/>
<path fill-rule="evenodd" clip-rule="evenodd" d="M8.36292 7.3918H12.6867L16.1128 24.5827H12.6488L12.0798 21.0814H8.98241L8.50199 24.5827H5L8.36292 7.3918ZM9.32376 18.0603V18.1993H11.5994L10.5627 10.3876V10.2738H10.3225L9.32376 18.0603Z" fill="#252525"/>
</g>
<defs>
<clipPath id="clip0_778_1195">
<rect width="32" height="32" fill="white"/>
</clipPath>
</defs>
</svg>

<svg width="32" height="32" fill="none" xmlns="http://www.w3.org/2000/svg"><g clip-path="url(#a)"><path fill="#fff" d="M0 0h32v32H0z"/><path fill-rule="evenodd" clip-rule="evenodd" d="M60.071 11.753C60.071 8.719 61.955 7 65.128 7c3.148 0 4.943 1.782 4.943 4.841v7.825c-.075 3.552-1.757 5.347-5.057 5.334-3.3-.013-4.943-1.833-4.943-5.398v-7.85Zm6.365 9.218c.06-.197.08-.405.057-.61v-8.848a1.44 1.44 0 0 0-2.5-1.105 1.44 1.44 0 0 0-.37 1.105v8.848a1.492 1.492 0 0 0 1.442 1.681 1.517 1.517 0 0 0 1.371-1.07Z" fill="#252525"/><path d="M81.437 7.392h-8.989v3.046h2.984v14.145h3.224V10.438h2.781V7.392ZM83.308 7.392h8.976v3.046h-2.781v14.145h-3.224V10.438h-2.97V7.392ZM94.901 7.392h3.528v17.203H94.9V7.392ZM49.477 7.392v17.19h8.015v-3.248h-4.475V7.392h-3.54Z" fill="#252525"/><path fill-rule="evenodd" clip-rule="evenodd" d="M39.362 7.392h4.324l3.426 17.19h-3.451l-.569-3.5h-3.11l-.48 3.5h-3.49l3.35-17.19Zm.961 10.668v.14h2.238l-1.024-7.812v-.114h-.215l-.999 7.786Z" fill="#252525"/><path d="M27.036 7.392h-3.527v13.651a1.062 1.062 0 0 1-2.112 0v-2.085h-3.223v2.06c0 2.427 1.706 3.931 4.437 3.931a4.032 4.032 0 0 0 4.425-3.956V7.392Z" fill="#252525"/><path fill-rule="evenodd" clip-rule="evenodd" d="M8.363 7.392h4.324l3.426 17.19h-3.464l-.57-3.5H8.983l-.48 3.5H5l3.363-17.19Zm.96 10.668v.14H11.6l-1.036-7.812v-.114h-.24l-1 7.786Z" fill="#252525"/></g><defs><clipPath id="a"><path fill="#fff" d="M0 0h32v32H0z"/></clipPath></defs></svg>
